X: 10
T: Connaughtman's Rambles
R: jig
M: 6/8
L: 1/8
K: Dmaj
|:"D"FAA dAA|BAB dAG|FAA dfe|"G"dBB BAG|
  "D"FAA dAA|BAB def|"G"gfe "D"dfe|1"G"dBB BAG:|2 "G"dBB B3|
K:Bmin
|:"Bm"fbb "A"faa|"Bm"fef def|fbb faa|fed "A"e3|
  "Bm"fbb "A"faa|"Bm"fef def|"G"gfe "D"dfe|1 "G"dBB B3:|2 "G"dBB BAG|

